X: 1
T: 快速养精蓄锐
C: 作曲 - AI
M: 4/4
L: 1/8
Q: 1/4=60
K: A
V: Piano
% 第一段：主旋律
|: A2 B2 c2 A2 | E2 F#2 G2 E2 | D2 E2 F#2 D2 | A2 G2 F#2 E2 :| 
% 第二段：重复并渐强
|: A2 c2 d2 B2 | E2 A2 B2 c2 | F#2 G2 A2 E2 | A4 A4 :|
% 第三段：桥接段，稍作变化
| A2 D2 E2 A2 | F#m D E A | B2 E2 A2 A2 | A4 A4 | 
% 结束段
|: A2 c2 d2 A2 | G2 F#2 E2 D2 | A2 D2 E2 A2 | A4 z4 :|